src/22/actions/resource-calendar-child-insert.svg

<svg xmlns="http://www.w3.org/2000/svg" viewBox="0 0 22 22"><path d="M6 3S5 3 5 4H3v9h1V7h14v3h1V4h-2c0-1-1-1-1-1h-3s-1 0-1 1h-2c0-1-1-1-1-1H6zm0 1h3v1H6V4zm7 0h3v1h-3V4zM6 8v2h2V8H6zm4 0v2h2V8h-2zm4 0v2h2V8h-2zm-8 3v2h2v-2H6zm5 0v8h8v-8h-1v1h-1v-1h-4v1h-1v-1h-1zm1 2h6v5h-6v-5zm-7 1v2H3v1h2v2h1v-2h2v-1H6v-2H5zm8 0v1h1v-1h-1zm3 0v1h1v-1h-1zm0 2v1h1v-1h-1zm-7 2v1h1v-1H9z" fill="currentColor" color="#5d656b"/></svg>

<svg xmlns="http://www.w3.org/2000/svg" viewBox="0 0 22 22">
  <defs id="defs3051">
    <style type="text/css" id="current-color-scheme">
      .ColorScheme-Text {
        color:#5d656b;
      }
      </style>
  </defs>
 <path 
    style="fill:currentColor;fill-opacity:1;stroke:none" 
    d="M 6 3 C 6 3 5 2.99997 5 4 L 3 4 L 3 7 L 3 13 L 4 13 L 4 7 L 18 7 L 18 10 L 19 10 L 19 7 L 19 4 L 17 4 C 17 2.99997 16 3 16 3 L 13 3 C 13 3 12 2.99997 12 4 L 10 4 C 10 2.99997 9 3 9 3 L 6 3 z M 6 4 L 9 4 L 9 5 L 6 5 L 6 4 z M 13 4 L 16 4 L 16 5 L 13 5 L 13 4 z M 6 8 L 6 10 L 8 10 L 8 8 L 6 8 z M 10 8 L 10 10 L 12 10 L 12 8 L 10 8 z M 14 8 L 14 10 L 16 10 L 16 8 L 14 8 z M 6 11 L 6 13 L 8 13 L 8 11 L 6 11 z M 11 11 L 11 19 L 19 19 L 19 11 L 18 11 L 18 12 L 17 12 L 17 11 L 13 11 L 13 12 L 12 12 L 12 11 L 11 11 z M 12 13 L 18 13 L 18 18 L 12 18 L 12 13 z M 5 14 L 5 16 L 3 16 L 3 17 L 5 17 L 5 19 L 6 19 L 6 17 L 8 17 L 8 16 L 6 16 L 6 14 L 5 14 z M 13 14 L 13 15 L 14 15 L 14 14 L 13 14 z M 16 14 L 16 15 L 17 15 L 17 14 L 16 14 z M 16 16 L 16 17 L 17 17 L 17 16 L 16 16 z M 9 18 L 9 19 L 10 19 L 10 18 L 9 18 z "
    class="ColorScheme-Text"
    />  
</svg>
